src/asset/cabinet/wallet_icon.svg

<svg width="24" height="24" viewBox="0 0 24 24" fill="none" xmlns="http://www.w3.org/2000/svg">
    <path d="M3 7V7C3 5.89543 3.89543 5 5 5H18C19.1046 5 20 5.89543 20 7V9M3 7V7C3 8.10457 3.89543 9 5 9H19C20.1046 9 21 9.89543 21 11V17C21 18.1046 20.1046 19 19 19H5C3.89543 19 3 18.1046 3 17V7Z" stroke="currentColor" stroke-width="2" stroke-linejoin="round"/>
    <circle cx="16.5" cy="14.5" r="0.75" stroke="currentColor" stroke-width="1.5"/>
</svg>

<svg width="24" height="24" fill="none" xmlns="http://www.w3.org/2000/svg"><path d="M3 7v0a2 2 0 012-2h13a2 2 0 012 2v2M3 7v0a2 2 0 002 2h14a2 2 0 012 2v6a2 2 0 01-2 2H5a2 2 0 01-2-2V7z" stroke="currentColor" stroke-width="2" stroke-linejoin="round"/><circle cx="16.5" cy="14.5" r=".75" stroke="currentColor" stroke-width="1.5"/></svg>
